X:1
T:Title
%%score { 1 | ( 2 3 ) }
L:1/8
Q:1/4=100
M:6/8
K:F
V:1 treble nm="Grand Piano"
V:2 bass 
V:3 bass 
V:1
 C2 A G2 F | [F,CE]2 [F,B,D] [F,B,D]3 | [B,D]2 [B,DB] [CDA]2 [B,DG] | F2 E E3 | %4
w: Ira~D.~Sankey * * *||||
 E2 [Ec] [Fc]2 [F^c] | [Fd]2 [DB] [DG]2 [DF] | E2 E F2 [EG] | F6 | A2 c =B2 c | [Ed]2 [EG] [EB]3 | %10
w: ||||||
 [EB]2 [CGc] [CFA]2 [DFB] | [CFA]2 [CF] [CEG]3 | F2 A c2 f | e2 ^c d3 | c2 F .[CFA]2 [B,EG] | %15
w: |||||
 [A,F]6 |] %16
w: |
V:2
 [F,A,]2 [F,CF] [F,B,C]2 [F,A,C] | B,,2 B,, B,,3 | B,,2 G,, A,,2 B,, | [C,A,C]2 [C,G,C] [C,G,C]3 | %4
 [C,G,C]2 [B,,G,] [A,,F,]2 [A,,F,] | [B,,F,]2 [B,,G,] [B,,B,]2 [=B,,A,] | %6
 [C,G,C]2 [C,G,C] [C,A,C]2 [C,B,] | [F,A,]6 | [F,CF]2 [F,A,F] [F,_A,F]2 [F,=A,F] | %9
 [C,B,]2 [C,B,] [C,G,]3 | [C,G,]2 E, F,2 F, | F,2 A,, C,3 | %12
 [F,A,]2[K:treble] [F,CF] [F,A,F]2 [A,CF] | [A,^CG]2 [A,EG] [B,DF]3 | [A,F]2[K:bass] [D,A,] z DC, | %15
 F,6 |] %16
V:3
 x6 | x6 | x6 | x6 | x6 | x6 | x6 | x6 | x6 | x6 | x6 | x6 | x2[K:treble] x4 | x6 | %14
 z3[K:bass] .C,3 | x6 |] %16

